src/img/add-outline.svg

<?xml version="1.0" encoding="UTF-8" standalone="no"?>
<!DOCTYPE svg PUBLIC "-//W3C//DTD SVG 1.1//EN" "http://www.w3.org/Graphics/SVG/1.1/DTD/svg11.dtd">
<svg width="100%" height="100%" viewBox="0 0 20 20" version="1.1" xmlns="http://www.w3.org/2000/svg" xmlns:xlink="http://www.w3.org/1999/xlink" xml:space="preserve" xmlns:serif="http://www.serif.com/" style="fill-rule:evenodd;clip-rule:evenodd;stroke-linejoin:round;stroke-miterlimit:2;">
    <path d="M11,9L15,9L15,11L11,11L11,15L9,15L9,11L5,11L5,9L9,9L9,5L11,5L11,9ZM10,20C4.514,20 0,15.486 0,10C0,4.514 4.514,0 10,0C15.486,0 20,4.514 20,10C20,15.486 15.486,20 10,20ZM10,18C14.389,18 18,14.389 18,10C18,5.611 14.389,2 10,2C5.611,2 2,5.611 2,10C2,14.389 5.611,18 10,18Z" style="fill:rgb(247,177,67);fill-rule:nonzero;"/>
</svg>

<svg xmlns="http://www.w3.org/2000/svg" viewBox="0 0 20 20"><path d="M11 9h4v2h-4v4H9v-4H5V9h4V5h2v4zm-1 11a10 10 0 1 1 0-20 10 10 0 0 1 0 20zm0-2a8 8 0 1 0 0-16 8 8 0 0 0 0 16z"/></svg>
